coreui/free/cil-home.svg

<svg viewBox="0 0 512 512" xmlns="http://www.w3.org/2000/svg"><path d="M469.666 216.45L271.076 33.74v-.001c-13.42-12.35-34.18-11.91-47.07.98L41.35 217.363l-9.38 9.37v269.255h176v-168h96v168h176v-270.05ZM248.038 56.77c.28 0 .1.06-.02.18 -.125-.12-.27-.18.01-.18ZM448 463.99H336v-136 0c0-17.68-14.33-32-32-32h-96v0c-17.68 0-32 14.32-32 32v136H64v-224L248.038 57.35c.01-.02.01-.03.02-.04l199.938 182.67Z"/></svg>

<svg xmlns="http://www.w3.org/2000/svg" viewBox="0 0 512 512">
  <path fill="var(--ci-primary-color, currentColor)" d="M469.666,216.45,271.078,33.749a34,34,0,0,0-47.062.98L41.373,217.373,32,226.745V496H208V328h96V496H480V225.958ZM248.038,56.771c.282,0,.108.061-.013.18C247.9,56.832,247.756,56.771,248.038,56.771ZM448,464H336V328a32,32,0,0,0-32-32H208a32,32,0,0,0-32,32V464H64V240L248.038,57.356c.013-.012.014-.023.024-.035L448,240Z" class="ci-primary"/>
</svg>
